src/assets/icons/stack/astro-dark.svg

<svg width="460" height="160" viewBox="0 0 460 160" fill="none" xmlns="http://www.w3.org/2000/svg">
<path d="M65.7845 121.175C61.2669 117.045 59.9481 108.368 61.8302 102.082C65.0938 106.045 69.6158 107.301 74.2996 108.009C81.5305 109.103 88.6318 108.694 95.3489 105.389C96.1173 105.011 96.8275 104.507 97.6671 103.998C98.2974 105.826 98.4614 107.672 98.2413 109.551C97.706 114.127 95.4288 117.662 91.8069 120.341C90.3586 121.413 88.8261 122.371 87.3303 123.382C82.7349 126.487 81.4916 130.129 83.2184 135.427C83.2594 135.556 83.2961 135.685 83.3889 136C81.0427 134.95 79.3288 133.421 78.023 131.411C76.6437 129.289 75.9876 126.942 75.953 124.403C75.9358 123.167 75.9358 121.92 75.7696 120.702C75.3638 117.732 73.9694 116.402 71.3426 116.325C68.6466 116.247 66.5141 117.913 65.9486 120.538C65.9054 120.739 65.8428 120.938 65.7802 121.172L65.7845 121.175Z" fill="#17191E"/>
<path d="M40 101.034C40 101.034 53.3775 94.5177 66.7924 94.5177L76.9068 63.2155C77.2855 61.7017 78.3911 60.6729 79.6393 60.6729C80.8875 60.6729 81.9932 61.7017 82.3719 63.2155L92.4862 94.5177C108.374 94.5177 119.279 101.034 119.279 101.034C119.279 101.034 96.5558 39.133 96.5114 39.0088C95.8592 37.1787 94.7583 36 93.274 36H66.007C64.5227 36 63.4662 37.1787 62.7696 39.0088C62.7205 39.1307 40 101.034 40 101.034Z" fill="#17191E"/>
<path d="M181.043 81.1227C181.043 86.6079 174.22 89.8838 164.773 89.8838C158.624 89.8838 156.45 88.3601 156.45 85.1604C156.45 81.8083 159.149 80.2085 165.297 80.2085C170.846 80.2085 175.569 80.2846 181.043 80.9703V81.1227ZM181.118 74.3423C177.744 73.5805 172.645 73.1234 166.572 73.1234C148.877 73.1234 140.555 77.3135 140.555 87.065C140.555 97.1975 146.253 101.083 159.449 101.083C170.621 101.083 178.193 98.2641 180.968 91.3313H181.417C181.342 93.0074 181.267 94.6834 181.267 95.9785C181.267 99.5592 181.867 99.8639 184.791 99.8639H198.587C197.837 97.7308 197.387 91.7122 197.387 86.5317C197.387 80.9703 197.612 76.7802 197.612 71.1426C197.612 59.6388 190.715 52.3251 169.121 52.3251C159.824 52.3251 149.477 53.925 141.605 56.2867C142.354 59.4102 143.404 65.7335 143.929 69.8474C150.752 66.6477 160.424 65.2764 167.922 65.2764C178.268 65.2764 181.118 67.6381 181.118 72.4377V74.3423Z" fill="#17191E"/>
<path d="M218.971 84.3224C217.097 84.5509 214.547 84.5509 211.923 84.5509C209.149 84.5509 206.6 84.4748 204.875 84.2462C204.875 84.8557 204.8 85.5413 204.8 86.1508C204.8 95.6738 211.023 101.235 232.917 101.235C253.535 101.235 260.208 95.75 260.208 86.0746C260.208 76.9325 255.785 72.4377 236.216 71.4473C220.995 70.7616 219.646 69.0856 219.646 67.181C219.646 64.9717 221.595 63.8289 231.792 63.8289C242.364 63.8289 245.213 65.2764 245.213 68.3238V69.0094C246.712 68.9332 249.412 68.8571 252.186 68.8571C254.81 68.8571 257.659 68.9332 259.309 69.0856C259.309 68.3999 259.384 67.7905 259.384 67.2572C259.384 56.0581 250.086 52.4013 232.092 52.4013C211.848 52.4013 205.025 57.3533 205.025 67.0286C205.025 75.7136 210.499 81.1227 229.918 81.9607C244.238 82.4178 245.813 84.0177 245.813 86.227C245.813 88.5887 243.488 89.6553 233.442 89.6553C221.895 89.6553 218.971 88.0554 218.971 84.7795V84.3224Z" fill="#17191E"/>
<path d="M284.955 44.1734C279.482 49.2778 269.66 54.3821 264.187 55.7534C264.262 58.5722 264.262 63.7527 264.262 66.5715L269.285 66.6477C269.21 72.0568 269.135 78.6086 269.135 82.9511C269.135 93.0835 274.458 100.702 291.028 100.702C298.001 100.702 302.65 99.9401 308.423 98.7212C307.823 94.9881 307.148 89.2743 306.923 84.9319C303.474 86.0746 299.126 86.6841 294.327 86.6841C287.654 86.6841 284.955 84.8557 284.955 79.599C284.955 75.028 284.955 70.7616 285.03 66.8001C293.578 66.8763 302.125 67.0286 307.148 67.181C307.073 63.2194 307.223 57.5056 307.448 53.6964C300.175 53.8488 292.003 53.925 285.255 53.925C285.33 50.5729 285.405 47.3732 285.48 44.1734H284.955Z" fill="#17191E"/>
<path d="M329.736 64.286C329.811 60.3244 329.886 56.9724 329.961 53.6964H314.89C315.115 60.2483 315.115 66.9525 315.115 76.7802C315.115 86.6079 315.04 93.3883 314.89 99.8639H332.135C331.835 95.2929 331.76 87.5983 331.76 81.0465C331.76 70.6855 335.959 67.7143 345.481 67.7143C349.905 67.7143 353.054 68.2476 355.828 69.238C355.903 65.3526 356.653 57.8104 357.102 54.4583C354.253 53.6203 351.104 53.087 347.28 53.087C339.108 53.0108 333.11 56.3629 330.336 64.3622L329.736 64.286Z" fill="#17191E"/>
<path d="M404.808 76.4754C404.808 84.7795 398.81 88.6649 389.363 88.6649C379.991 88.6649 373.993 85.008 373.993 76.4754C373.993 67.9428 380.066 64.7431 389.363 64.7431C398.735 64.7431 404.808 68.1714 404.808 76.4754ZM420.478 76.0945C420.478 59.5626 407.582 52.1728 389.363 52.1728C371.069 52.1728 358.622 59.5626 358.622 76.0945C358.622 92.5503 370.244 101.388 389.288 101.388C408.482 101.388 420.478 92.5503 420.478 76.0945Z" fill="#17191E"/>
</svg>

<svg xmlns="http://www.w3.org/2000/svg" width="460" height="160" fill="none" viewBox="0 0 460 160"><path fill="#17191e" d="M65.785 121.175c-4.518-4.13-5.837-12.807-3.955-19.093 3.264 3.963 7.786 5.219 12.47 5.927 7.23 1.094 14.332.685 21.049-2.62.768-.378 1.478-.882 2.318-1.391.63 1.828.794 3.674.574 5.553-.535 4.576-2.812 8.111-6.434 10.79-1.448 1.072-2.98 2.03-4.477 3.041-4.595 3.105-5.838 6.747-4.112 12.045.041.129.078.258.17.573-2.345-1.05-4.06-2.579-5.365-4.589-1.38-2.122-2.035-4.469-2.07-7.008-.017-1.236-.017-2.483-.183-3.701-.406-2.97-1.8-4.3-4.427-4.377-2.696-.078-4.829 1.588-5.394 4.213-.044.201-.106.4-.169.634zM40 101.034s13.377-6.516 26.792-6.516l10.115-31.303c.379-1.513 1.484-2.542 2.732-2.542s2.354 1.029 2.733 2.542l10.114 31.303c15.888 0 26.793 6.516 26.793 6.516L96.511 39.009C95.86 37.179 94.758 36 93.274 36H66.007c-1.484 0-2.54 1.179-3.237 3.009-.05.122-22.77 62.025-22.77 62.025M181.043 81.123c0 5.485-6.823 8.76-16.27 8.76-6.149 0-8.323-1.523-8.323-4.723 0-3.352 2.699-4.951 8.847-4.951 5.549 0 10.272.076 15.746.761zm.075-6.78c-3.374-.763-8.473-1.22-14.546-1.22-17.695 0-26.017 4.19-26.017 13.942 0 10.133 5.698 14.018 18.894 14.018 11.172 0 18.744-2.819 21.519-9.752h.449c-.075 1.676-.15 3.352-.15 4.647 0 3.581.6 3.886 3.524 3.886h13.796c-.75-2.133-1.2-8.152-1.2-13.332 0-5.562.225-9.752.225-15.39 0-11.503-6.897-18.817-28.491-18.817-9.297 0-19.644 1.6-27.516 3.962.749 3.123 1.799 9.447 2.324 13.56 6.823-3.2 16.495-4.57 23.993-4.57 10.346 0 13.196 2.361 13.196 7.16zM218.971 84.322c-1.874.229-4.424.229-7.048.229-2.774 0-5.323-.076-7.048-.305 0 .61-.075 1.295-.075 1.905 0 9.523 6.223 15.084 28.117 15.084 20.618 0 27.291-5.485 27.291-15.16 0-9.142-4.423-13.637-23.992-14.628-15.221-.685-16.57-2.361-16.57-4.266 0-2.21 1.949-3.352 12.146-3.352 10.572 0 13.421 1.447 13.421 4.495v.685c1.499-.076 4.199-.152 6.973-.152 2.624 0 5.473.076 7.123.229 0-.686.075-1.296.075-1.829 0-11.199-9.298-14.856-27.292-14.856-20.244 0-27.067 4.952-27.067 14.628 0 8.685 5.474 14.094 24.893 14.932 14.32.457 15.895 2.057 15.895 4.266 0 2.362-2.325 3.428-12.371 3.428-11.547 0-14.471-1.6-14.471-4.876zM284.955 44.173c-5.473 5.105-15.295 10.21-20.768 11.58.075 2.82.075 8 .075 10.819l5.023.076c-.075 5.409-.15 11.96-.15 16.303 0 10.133 5.323 17.751 21.893 17.751 6.973 0 11.622-.762 17.395-1.98-.6-3.734-1.275-9.448-1.5-13.79-3.449 1.143-7.797 1.752-12.596 1.752-6.673 0-9.372-1.828-9.372-7.085 0-4.571 0-8.837.075-12.799 8.548.076 17.095.229 22.118.381-.075-3.962.075-9.675.3-13.485-7.273.153-15.445.229-22.193.229.075-3.352.15-6.552.225-9.752zM329.736 64.286c.075-3.962.15-7.314.225-10.59H314.89c.225 6.552.225 13.257.225 23.084s-.075 16.608-.225 23.084h17.245c-.3-4.571-.375-12.266-.375-18.818 0-10.36 4.199-13.332 13.721-13.332 4.424 0 7.573.534 10.347 1.524.075-3.885.825-11.428 1.274-14.78-2.849-.838-5.998-1.371-9.822-1.371-8.172-.076-14.17 3.276-16.944 11.275zM404.808 76.475c0 8.305-5.998 12.19-15.445 12.19-9.372 0-15.37-3.657-15.37-12.19s6.073-11.732 15.37-11.732c9.372 0 15.445 3.428 15.445 11.732m15.67-.38c0-16.532-12.896-23.922-31.115-23.922-18.294 0-30.741 7.39-30.741 23.921 0 16.456 11.622 25.294 30.666 25.294 19.194 0 31.19-8.838 31.19-25.294"/></svg>
